SVG_Azure_All/Application Insights Application Map.svg

<?xml version="1.0" encoding="UTF-8" standalone="no"?>
<!-- Generated by Microsoft Visio, SVG Export Application Insights Application Map.svg Page-1 -->

<svg
   xmlns:dc="http://purl.org/dc/elements/1.1/"
   xmlns:cc="http://creativecommons.org/ns#"
   xmlns:rdf="http://www.w3.org/1999/02/22-rdf-syntax-ns#"
   xmlns:svg="http://www.w3.org/2000/svg"
   xmlns="http://www.w3.org/2000/svg"
   xmlns:sodipodi="http://sodipodi.sourceforge.net/DTD/sodipodi-0.dtd"
   xmlns:inkscape="http://www.inkscape.org/namespaces/inkscape"
   width="0.78739738in"
   height="0.78738904in"
   viewBox="0 0 56.692679 56.692298"
   xml:space="preserve"
   class="st7"
   version="1.1"
   id="svg44"
   sodipodi:docname="Application Insights Application Map.svg"
   style="font-size:12px;overflow:visible;color-interpolation-filters:sRGB;fill:none;fill-rule:evenodd;stroke-linecap:square;stroke-miterlimit:3"
   inkscape:version="0.92.5 (2060ec1f9f, 2020-04-08)"><metadata
   id="metadata50"><rdf:RDF><cc:Work
       rdf:about=""><dc:format>image/svg+xml</dc:format><dc:type
         rdf:resource="http://purl.org/dc/dcmitype/StillImage" /></cc:Work></rdf:RDF></metadata><defs
   id="defs48" /><sodipodi:namedview
   pagecolor="#ffffff"
   bordercolor="#666666"
   borderopacity="1"
   objecttolerance="10"
   gridtolerance="10"
   guidetolerance="10"
   inkscape:pageopacity="0"
   inkscape:pageshadow="2"
   inkscape:window-width="640"
   inkscape:window-height="480"
   id="namedview46"
   showgrid="false"
   inkscape:zoom="1.7193066"
   inkscape:cx="37.795072"
   inkscape:cy="23.279613"
   inkscape:window-x="0"
   inkscape:window-y="0"
   inkscape:window-maximized="0"
   inkscape:current-layer="svg44" />
	<style
   type="text/css"
   id="style2">
	<![CDATA[
		.st1 {fill:#b3b4b5;stroke:none;stroke-linecap:butt;stroke-width:12.24}
		.st2 {fill:#fdb813;stroke:none;stroke-linecap:butt;stroke-width:12.24}
		.st3 {fill:#1ba1e2;stroke:none;stroke-linecap:butt;stroke-width:12.24}
		.st4 {fill:#0072c6;stroke:none;stroke-linecap:butt;stroke-width:12.24}
		.st5 {fill:#ffffff;fill-opacity:0.15;stroke:none;stroke-linecap:butt;stroke-width:12.24}
		.st6 {fill:#ff8c00;stroke:none;stroke-linecap:butt;stroke-width:12.24}
		.st7 {fill:none;fill-rule:evenodd;font-size:12px;overflow:visible;stroke-linecap:square;stroke-miterlimit:3}
	]]>
	</style>

	<g
   id="g42"
   transform="translate(-12.24016,-12.242)">
		<title
   id="title4">Page-1</title>
		<g
   id="group9610-1"
   transform="translate(12.24,-34.0157)">
			<title
   id="title6">Application Insights Application Map</title>
			<g
   id="group9611-2">
				<title
   id="title8"> Application_map</title>
				<g
   id="shape9612-3"
   transform="translate(11.0675,-6.34961)">
					<title
   id="title10">Sheet.9612</title>
					<path
   d="M 2.15,102.95 0,99.43 29.59,80.95 0,62.47 l 2.15,-3.52 35.12,22 z"
   class="st1"
   id="path12"
   inkscape:connector-curvature="0"
   style="fill:#b3b4b5;stroke:none;stroke-width:12.23999977;stroke-linecap:butt" />
				</g>
				<g
   id="shape9613-5"
   transform="translate(32.4121,-20.1827)">
					<title
   id="title15">Sheet.9613</title>
					<rect
   x="0"
   y="86.734497"
   width="24.2808"
   height="16.214199"
   class="st2"
   id="rect17"
   style="fill:#fdb813;stroke:none;stroke-width:12.23999977;stroke-linecap:butt" />
				</g>
				<g
   id="shape9614-7">
					<title
   id="title20">Sheet.9614</title>
					<path
   d="M 0,46.26 H 24.28 V 62.47 H 0 Z m 0,40.47 h 24.28 v 16.22 H 0 Z"
   class="st3"
   id="path22"
   inkscape:connector-curvature="0"
   style="fill:#1ba1e2;stroke:none;stroke-width:12.23999977;stroke-linecap:butt" />
				</g>
				<g
   id="shape9615-9"
   transform="translate(0,-12.1323)">
					<title
   id="title25">Sheet.9615</title>
					<path
   d="m 0,58.39 h 24.28 v 4.08 H 0 Z m 0,40.48 h 24.28 v 4.08 H 0 Z"
   class="st4"
   id="path27"
   inkscape:connector-curvature="0"
   style="fill:#0072c6;stroke:none;stroke-width:12.23999977;stroke-linecap:butt" />
				</g>
				<g
   id="shape9616-11"
   transform="translate(12.1969)">
					<title
   id="title30">Sheet.9616</title>
					<path
   d="M 0,46.26 H 12.2 V 62.47 H 0 Z m 0,40.47 h 12.2 v 16.22 H 0 Z"
   class="st5"
   id="path32"
   inkscape:connector-curvature="0"
   style="fill:#ffffff;fill-opacity:0.15;stroke:none;stroke-width:12.23999977;stroke-linecap:butt" />
				</g>
				<g
   id="shape9617-13"
   transform="translate(32.4121,-32.315)">
					<title
   id="title35">Sheet.9617</title>
					<rect
   x="0"
   y="98.866798"
   width="24.2808"
   height="4.0818901"
   class="st6"
   id="rect37"
   style="fill:#ff8c00;stroke:none;stroke-width:12.23999977;stroke-linecap:butt" />
				</g>
			</g>
		</g>
	</g>
</svg>

<?xml version="1.0" encoding="UTF-8" standalone="no"?>
<!DOCTYPE svg PUBLIC "-//W3C//DTD SVG 1.1//EN" "http://www.w3.org/Graphics/SVG/1.1/DTD/svg11.dtd">
<!-- Generated by Microsoft Visio, SVG Export Application Insights Application Map.svg Page-1 -->
<svg xmlns="http://www.w3.org/2000/svg" xmlns:xlink="http://www.w3.org/1999/xlink" xmlns:ev="http://www.w3.org/2001/xml-events"
		width="1.1274in" height="1.42984in" viewBox="0 0 81.1729 102.949" xml:space="preserve" color-interpolation-filters="sRGB"
		class="st7">
	<style type="text/css">
	<![CDATA[
		.st1 {fill:#b3b4b5;stroke:none;stroke-linecap:butt;stroke-width:12.24}
		.st2 {fill:#fdb813;stroke:none;stroke-linecap:butt;stroke-width:12.24}
		.st3 {fill:#1ba1e2;stroke:none;stroke-linecap:butt;stroke-width:12.24}
		.st4 {fill:#0072c6;stroke:none;stroke-linecap:butt;stroke-width:12.24}
		.st5 {fill:#ffffff;fill-opacity:0.15;stroke:none;stroke-linecap:butt;stroke-width:12.24}
		.st6 {fill:#ff8c00;stroke:none;stroke-linecap:butt;stroke-width:12.24}
		.st7 {fill:none;fill-rule:evenodd;font-size:12px;overflow:visible;stroke-linecap:square;stroke-miterlimit:3}
	]]>
	</style>

	<g>
		<title>Page-1</title>
		<g id="group9405-1" transform="translate(12.24,-34.0157)">
			<title>Application Insights Application Map</title>
			<g id="group9406-2">
				<title> Application_map</title>
				<g id="shape9407-3" transform="translate(11.0675,-6.34961)">
					<title>Sheet.9407</title>
					<path d="M2.15 102.95 L0 99.43 L29.59 80.95 L0 62.47 L2.15 58.95 L37.27 80.95 L2.15 102.95 Z" class="st1"/>
				</g>
				<g id="shape9408-5" transform="translate(32.4121,-20.1827)">
					<title>Sheet.9408</title>
					<rect x="0" y="86.7345" width="24.2808" height="16.2142" class="st2"/>
				</g>
				<g id="shape9409-7">
					<title>Sheet.9409</title>
					<path d="M0 46.26 L24.28 46.26 L24.28 62.47 L0 62.47 L0 46.26 ZM0 86.73 L24.28 86.73 L24.28 102.95 L0 102.95
								 L0 86.73 Z" class="st3"/>
				</g>
				<g id="shape9410-9" transform="translate(0,-12.1323)">
					<title>Sheet.9410</title>
					<path d="M0 58.39 L24.28 58.39 L24.28 62.47 L0 62.47 L0 58.39 ZM0 98.87 L24.28 98.87 L24.28 102.95 L0 102.95
								 L0 98.87 Z" class="st4"/>
				</g>
				<g id="shape9411-11" transform="translate(12.1969,1.42109E-14)">
					<title>Sheet.9411</title>
					<path d="M0 46.26 L12.2 46.26 L12.2 62.47 L0 62.47 L0 46.26 ZM0 86.73 L12.2 86.73 L12.2 102.95 L0 102.95 L0 86.73
								 Z" class="st5"/>
				</g>
				<g id="shape9412-13" transform="translate(32.4121,-32.315)">
					<title>Sheet.9412</title>
					<rect x="0" y="98.8668" width="24.2808" height="4.08189" class="st6"/>
				</g>
			</g>
		</g>
	</g>
</svg>
